X: 22365
T: Lad From Orkney, The
R: reel
M: 4/4
K: Amajor
g|:agfg ecBc|A2 cA eA ce|a2 ga f2 ec|(3BBB Bc f3 g:|
|:agfe fbbg|agab afec|BF (3FFF BcAB|1 cefg a3g:|2 cefg a3||

